X: 071
T: I'll make you be fain to follow me
R: jig
M: 6/8
L: 1/8
Z: 2010 John Chambers <jc:trillian.mit.edu>
B: Abraham Mackintosh "A Collection of Strathspeys, Reels, Jigs &c.", Newcastle, after 1797, p.7
F: http://imslp.info/files/imglnks/usimg/a/a8/IMSLP80796-PMLP164326-Abraham_Mackintosh_coll.pdf
K: C
V: 1
C | (E/F/G).G c2e | dDD D2C | (E/F/G).G cdc | B>AB cGE | FdF EcE | dDD D2C | (E/F/G).G c2G | ECC C2 :|
f | ega gec | (e/f/g).e Td2c | ega gec | gea gec | f>ga gec | fge d2D | (E/F/G).G c2G | ECC C2 ||
f | ega gec | (e/f/g).e Td2c | ega gec | gea gec | fga gec | Tf2e dgf | ece fdf | ecc c2 |]
V: 2 clef=bass middle=d
z | c3 e2c | g3 G2z | c3 e3 | f3 e3 | d2B c3 | g3 G3  | c3 c3 | c3 c2 :|
z | c3 c3 | c3 g2c' | c3 c3 | c3 e3 | f3 c3 | B2c G2B | c3 c3 | c3 c3 ||
    c3 c3 | c3 g2c' | c3 c3 | c3 e3 | f3 c3 | d2c B3  | c3 G3 | c3 c2 |]

%%sep 2 1 500

